image/tech.svg

<svg width="217" height="50" viewBox="0 0 217 50" fill="none" xmlns="http://www.w3.org/2000/svg">
<path d="M81.4667 21.6638V35.1627H76.5453V21.6627H71.5671V17.365H86.4298V21.6627H81.4667V21.6638ZM97.932 29.7987H90.1142C90.2685 31.2778 91.1261 31.9266 92.377 31.9266C93.5456 31.9266 94.5157 31.672 95.8235 30.9813L97.5665 33.9115C95.921 34.8848 94.2198 35.4348 92.1391 35.4348C88.131 35.4348 85.9239 32.5883 85.9239 28.4883C85.9239 23.8801 88.5116 21.5278 92.0126 21.5278C95.668 21.5278 97.9459 23.9371 97.9459 28.8964C97.9459 29.2917 97.9459 29.5731 97.932 29.7987ZM91.8862 24.9231C90.8452 24.9231 90.2685 25.6417 90.1142 26.9522H93.925C93.686 25.6138 93.2357 24.9231 91.8862 24.9231ZM106.424 35.4476C102.516 35.4476 100.181 32.9534 100.181 28.4592C100.181 24.3592 102.262 21.5406 106.523 21.5406C109.04 21.5406 110.474 22.7103 111.64 24.5848L108.491 26.9801C107.858 25.8103 107.423 25.2476 106.438 25.2476C105.272 25.2476 104.681 26.4162 104.681 28.529C104.681 30.6429 105.313 31.7278 106.564 31.7278C107.423 31.7278 108.042 31.2487 108.871 29.9952L111.768 32.2627C110.221 34.5603 108.785 35.4476 106.424 35.4476ZM121.992 35.1627V27.5836C121.992 25.851 121.416 25.3999 120.473 25.3999C119.503 25.3999 118.926 25.8499 118.926 27.5406V35.1638H114.357V18.465L118.926 16.6348V22.7069C119.77 22.0731 120.698 21.5371 122.273 21.5371C125.197 21.5371 126.59 23.4964 126.59 27.0045V35.1627H121.992Z" fill="black"/>
<path d="M137.516 35.451C132.244 35.451 129.417 31.5336 129.417 26.2778C129.417 20.5569 132.763 17.1057 137.53 17.1057C141.889 17.1057 143.619 18.9941 144.842 22.3464L140.385 24.0801C139.751 22.4313 139.147 21.3894 137.516 21.3894C135.464 21.3894 134.577 23.4464 134.577 26.2638C134.577 28.9836 135.435 31.1394 137.572 31.1394C139.119 31.1394 139.78 30.2941 140.737 28.6162L144.898 30.829C143.717 33.1824 141.735 35.451 137.516 35.451ZM156.129 26.8522C155.552 26.2185 154.89 25.7394 154.005 25.7394C152.894 25.7394 152.205 26.2743 152.205 27.8952V35.165H147.635V21.822H152.205V22.7941C152.993 22.0336 153.879 21.5545 155.046 21.5545C156.016 21.5545 156.662 21.7801 157.197 22.1185L156.129 26.8522ZM166.987 35.1673V34.2801C166.172 34.9138 165.216 35.4499 163.669 35.4499C160.744 35.4499 159.352 33.4917 159.352 29.9824V21.8255H163.95V29.4057C163.95 31.1383 164.527 31.5894 165.469 31.5894C166.411 31.5894 166.987 31.1383 166.987 29.4476V21.8255H171.585V35.1673H166.987ZM182.512 35.1662V27.5848C182.512 25.8522 181.935 25.4022 180.993 25.4022C180.023 25.4022 179.447 25.8522 179.447 27.5429V35.1662H174.876V21.8231H179.447V22.7103C180.291 22.0766 181.218 21.5406 182.793 21.5406C185.718 21.5406 187.11 23.4999 187.11 27.008V35.1662H182.512ZM196.009 35.4476C192.1 35.4476 189.766 32.9534 189.766 28.4592C189.766 24.3592 191.847 21.5406 196.108 21.5406C198.625 21.5406 200.059 22.7103 201.225 24.5848L198.076 26.9801C197.443 25.8103 197.007 25.2476 196.023 25.2476C194.856 25.2476 194.265 26.4162 194.265 28.529C194.265 30.6429 194.898 31.7278 196.149 31.7278C197.007 31.7278 197.625 31.2487 198.455 29.9952L201.352 32.2627C199.805 34.5603 198.372 35.4476 196.009 35.4476ZM211.576 35.1627V27.5836C211.576 25.851 211.001 25.3999 210.058 25.3999C209.088 25.3999 208.511 25.8499 208.511 27.5406V35.1638H203.942V18.465L208.511 16.6348V22.7069C209.355 22.0731 210.283 21.5371 211.858 21.5371C214.782 21.5371 216.175 23.4964 216.175 27.0045V35.1627H211.576Z" fill="black"/>
<path d="M0.336526 9.75V19.9221H10.4879V40.2558H20.6254V19.9221H30.778V9.75H0.336526Z" fill="black"/>
<path d="M40.9144 30.0814V19.9221H30.7745V40.2535H61.2033V30.0802H40.9144V30.0814ZM61.2091 9.75H40.9167V19.9221H61.2079V9.75H61.2091Z" fill="black"/>
</svg>

<svg xmlns="http://www.w3.org/2000/svg" width="217" height="50" fill="none"><path fill="#000" d="M81.467 21.664v13.499h-4.922v-13.5h-4.978v-4.298H86.43v4.298h-4.963Zm16.465 8.135h-7.818c.154 1.479 1.012 2.128 2.263 2.128 1.169 0 2.139-.255 3.447-.946l1.743 2.93c-1.646.974-3.347 1.524-5.428 1.524-4.008 0-6.215-2.847-6.215-6.947 0-4.608 2.588-6.96 6.089-6.96 3.655 0 5.933 2.41 5.933 7.368 0 .396 0 .677-.014.903Zm-6.046-4.876c-1.04 0-1.617.719-1.772 2.03h3.811c-.239-1.34-.69-2.03-2.039-2.03Zm14.538 10.525c-3.908 0-6.243-2.495-6.243-6.989 0-4.1 2.081-6.918 6.342-6.918 2.517 0 3.951 1.17 5.117 3.044l-3.149 2.395c-.633-1.17-1.068-1.732-2.053-1.732-1.166 0-1.757 1.168-1.757 3.281 0 2.114.632 3.199 1.883 3.199.859 0 1.478-.48 2.307-1.733l2.897 2.268c-1.547 2.297-2.983 3.185-5.344 3.185Zm15.568-.285v-7.58c0-1.732-.576-2.183-1.519-2.183-.97 0-1.547.45-1.547 2.14v7.624h-4.569V18.465l4.569-1.83v6.072c.844-.634 1.772-1.17 3.347-1.17 2.924 0 4.317 1.96 4.317 5.468v8.158h-4.598ZM137.516 35.451c-5.272 0-8.099-3.917-8.099-9.173 0-5.721 3.346-9.172 8.113-9.172 4.359 0 6.089 1.888 7.312 5.24l-4.457 1.734c-.634-1.649-1.238-2.69-2.869-2.69-2.052 0-2.939 2.056-2.939 4.874 0 2.72.858 4.875 2.995 4.875 1.547 0 2.208-.845 3.165-2.523l4.161 2.213c-1.181 2.353-3.163 4.622-7.382 4.622Zm18.613-8.599c-.577-.634-1.239-1.113-2.124-1.113-1.111 0-1.8.535-1.8 2.156v7.27h-4.57V21.822h4.57v.972c.788-.76 1.674-1.24 2.841-1.24.97 0 1.616.226 2.151.565l-1.068 4.733Zm10.858 8.315v-.887c-.815.634-1.771 1.17-3.318 1.17-2.925 0-4.317-1.958-4.317-5.468v-8.156h4.598v7.58c0 1.732.577 2.183 1.519 2.183s1.518-.45 1.518-2.141v-7.622h4.598v13.341h-4.598Zm15.525 0v-7.582c0-1.733-.577-2.183-1.519-2.183-.97 0-1.546.45-1.546 2.14v7.624h-4.571V21.823h4.571v.887c.844-.633 1.771-1.17 3.346-1.17 2.925 0 4.317 1.96 4.317 5.468v8.158h-4.598Zm13.497.28c-3.909 0-6.243-2.494-6.243-6.988 0-4.1 2.081-6.918 6.342-6.918 2.517 0 3.951 1.17 5.117 3.044l-3.149 2.395c-.633-1.17-1.069-1.732-2.053-1.732-1.167 0-1.758 1.168-1.758 3.281 0 2.114.633 3.199 1.884 3.199.858 0 1.476-.48 2.306-1.733l2.897 2.268c-1.547 2.297-2.98 3.185-5.343 3.185Zm15.567-.284v-7.58c0-1.732-.575-2.183-1.518-2.183-.97 0-1.547.45-1.547 2.14v7.624h-4.569V18.465l4.569-1.83v6.072c.844-.634 1.772-1.17 3.347-1.17 2.924 0 4.317 1.96 4.317 5.468v8.158h-4.599ZM.337 9.75v10.172h10.15v20.334h10.138V19.922h10.153V9.75H.337Z"/><path fill="#000" d="M40.914 30.081V19.922h-10.14v20.332h30.43V30.08h-20.29v.001ZM61.21 9.75H40.917v10.172h20.29V9.75h.002Z"/></svg>
